svgs/thin/bomb.svg

<svg xmlns="http://www.w3.org/2000/svg" viewBox="0 0 512 512"><!--! Font Awesome Pro 6.4.0 by @fontawesome - https://fontawesome.com License - https://fontawesome.com/license (Commercial License) Copyright 2023 Fonticons, Inc. --><path d="M456 16V56h40c4.4 0 8 3.6 8 8s-3.6 8-8 8H456v40c0 4.4-3.6 8-8 8s-8-3.6-8-8V72H400c-4.4 0-8-3.6-8-8s3.6-8 8-8h40V16c0-4.4 3.6-8 8-8s8 3.6 8 8zM289.8 119.6c-4.4 4.4-10.9 5.8-16.7 3.7C252.8 116 230.9 112 208 112C102 112 16 198 16 304s86 192 192 192s192-86 192-192c0-22.9-4-44.8-11.3-65.1c-2.1-5.8-.6-12.4 3.7-16.7l2.9-2.9c6.2-6.2 6.2-16.4 0-22.6l-80-80c-6.2-6.2-16.4-6.2-22.6 0l-2.9 2.9zM406.6 230.6l-2.9 2.9c7.9 22 12.2 45.7 12.2 70.5c0 114.9-93.1 208-208 208S0 418.9 0 304S93.1 96 208 96c24.7 0 48.5 4.3 70.5 12.3l2.9-2.9c12.5-12.5 32.8-12.5 45.3 0L361 139.7l33.4-33.4c3.1-3.1 8.2-3.1 11.3 0s3.1 8.2 0 11.3L372.3 151l34.3 34.3c12.5 12.5 12.5 32.8 0 45.3zM200 184c-61.9 0-112 50.1-112 112v8c0 4.4-3.6 8-8 8s-8-3.6-8-8v-8c0-70.7 57.3-128 128-128h8c4.4 0 8 3.6 8 8s-3.6 8-8 8h-8z"/></svg>

<svg xmlns="http://www.w3.org/2000/svg" viewBox="0 0 512 512"><!--! Font Awesome Pro 6.3.0 by @fontawesome - https://fontawesome.com License - https://fontawesome.com/license (Commercial License) Copyright 2023 Fonticons, Inc. --><path d="M456 56H496C500.4 56 504 59.58 504 64C504 68.42 500.4 72 496 72H456V112C456 116.4 452.4 120 448 120C443.6 120 440 116.4 440 112V72H400C395.6 72 392 68.42 392 64C392 59.58 395.6 56 400 56H440V16C440 11.58 443.6 8 448 8C452.4 8 456 11.58 456 16V56zM199.1 184C138.1 184 87.1 234.1 87.1 296V304C87.1 308.4 84.42 312 79.1 312C75.58 312 71.1 308.4 71.1 304V296C71.1 225.3 129.3 168 199.1 168H207.1C212.4 168 215.1 171.6 215.1 176C215.1 180.4 212.4 184 207.1 184H199.1zM406.6 230.6L403.8 233.5C411.7 255.5 416 279.3 416 304C416 418.9 322.9 512 208 512C93.12 512 0 418.9 0 304C0 189.1 93.12 96 208 96C232.7 96 256.5 100.3 278.5 108.3L281.4 105.4C293.9 92.88 314.1 92.88 326.6 105.4L360.1 139.7L394.3 106.3C397.5 103.2 402.5 103.2 405.7 106.3C408.8 109.5 408.8 114.5 405.7 117.7L372.3 151L406.6 185.4C419.1 197.9 419.1 218.1 406.6 230.6L406.6 230.6zM289.8 119.6C285.4 123.9 278.9 125.4 273.1 123.3C252.8 115.1 230.9 112 207.1 112C101.1 112 15.1 197.1 15.1 304C15.1 410 101.1 496 207.1 496C314 496 400 410 400 304C400 281.1 396 259.2 388.7 238.9C386.6 233.1 388.1 226.6 392.4 222.2L395.3 219.3C401.6 213.1 401.6 202.9 395.3 196.7L315.3 116.7C309.1 110.4 298.9 110.4 292.7 116.7L289.8 119.6z"/></svg>
